X: 1
T: L\aangt ner i Sm\aaland
O: Trad
S: Andrea Hoag
N: from transcription by Karen Myers
M: 2/4
L: 1/16
K: D
z2 A2 \
| "D"{Bc}d3d A2F2 | D4 F3E | TE2D2 F2A2 |d4 d2B2 \
| "G"G2B2 B2AG | "D"F2A2 A3F | "A7"F3G F2E2 | "D"D4 :|
|: A2Bc \
| "D"d3c d2f2 | "A7"e4 c2Ac | e3d e2g2 | "D"fgfe d2B2 \
| "G"G2B2 B2AG | "D"F2A2 A3F | "A7"F3G F2E2 | "D"D4 :|
